X: 3483
T: Bi Falbh O'n Uinneig
R: waltz
M: 3/4
K: Aminor
E2|A4c2|e4A2|c4d2|B4cB|A3Bc2|g2e2dB|A3GB2|1 A4:|2 A4eg||
|:a2a2gf|e2d2ef|g3fe2|d2B2e2|a2a2gf|e2d2AB|c3Be2|1 A4e2:|2 A6||

